X:22
T:The Pretty Maid Retreat
S:Ashworth's Instructor, p. 36
M:3/4
%%MIDI program 72
%%MIDI transpose 8
L:1/8
K:D
a>g|fga2A2|d>ef2zA|B2gedc|d2z2A2|B>AB2d2|AFD2zA|BABcdF|E2D2::
G>F|G>Be2G2|F>Ad2zF|B>AB>cd>F|F2E2a>g|f>ga2c2|d>ef2zA|B2gedc|d2z2:|]

